X:18031
T:Recovery, The
R:Polka
C:Trad.
O:England, Northampton
Z:Paul Hardy's Session Tunebook 2015 (see www.paulhardy.net). Creative Commons cc by-nc-sa licenced.
M:4/4
L:1/8
Q:1/4=180
K:D
|:"D"A2d2 A2d2|"A"edef e4|a2g2 e2c2|"D"dcde f4|A2d2 A2d2|"A"edef e4|"A7"a2g2 e2c2|"D"d4 +fine+d4:|
|:"A"a2g2 e2c2|"D"d2f2 A4|G2F2 "G"GFGA|"Em"G4 "D"F2z2|"A"a2g2 e2c2|"D"d2f2 A4|"Em"G2FG "A7"AGFE|"D"D4 D4:|
|:"D"f2ff f2f2|f6 g2|f2e2 d2c2|dcde f4|"A"e2ee e2e2|e6 f2|e2d2 c2B2|A4 A4:|

